polaris-icons/icons/new-icons/CashRupeeMajor.svg

<svg width="20" height="20" viewBox="0 0 20 20" fill="none" xmlns="http://www.w3.org/2000/svg">
<path d="M11.8887 13.893C12.1058 13.5402 11.9958 13.0782 11.6431 12.8612L9.92959 11.8067C10.5151 11.4 10.9176 10.7483 10.9887 10H12.25C12.6642 10 13 9.66421 13 9.25C13 8.83579 12.6642 8.5 12.25 8.5H11V7.74989H12.25C12.6642 7.74989 13 7.41411 13 6.99989C13 6.58568 12.6642 6.2499 12.25 6.2499H7.75C7.33579 6.2499 7 6.58568 7 6.99989C7 7.41411 7.33579 7.74989 7.75 7.74989H9.5V8.5H7.75C7.33579 8.5 7 8.83579 7 9.25C7 9.66421 7.33579 10 7.75 10H9.47107C9.36443 10.4306 8.97538 10.7499 8.51177 10.7499C7.60947 10.7499 7.27433 11.934 8.04278 12.4069L10.8569 14.1386C11.2097 14.3557 11.6717 14.2457 11.8887 13.893Z" fill="#4A4A4A"/>
<path fill-rule="evenodd" clip-rule="evenodd" d="M10 3C6.13401 3 3 6.13401 3 10C3 13.866 6.13401 17 10 17C13.866 17 17 13.866 17 10C17 6.13401 13.866 3 10 3ZM4.5 10C4.5 6.96243 6.96243 4.5 10 4.5C13.0376 4.5 15.5 6.96243 15.5 10C15.5 13.0376 13.0376 15.5 10 15.5C6.96243 15.5 4.5 13.0376 4.5 10Z" fill="#4A4A4A"/>
</svg>

<svg viewBox="0 0 20 20" xmlns="http://www.w3.org/2000/svg"><path d="M11.889 13.893a.75.75 0 0 0-.246-1.032l-1.713-1.054a2.487 2.487 0 0 0 1.059-1.807h1.261a.75.75 0 0 0 0-1.5h-1.25v-.75h1.25a.75.75 0 0 0 0-1.5h-4.5a.75.75 0 1 0 0 1.5h1.75v.75h-1.75a.75.75 0 0 0 0 1.5h1.721a.989.989 0 0 1-.96.75c-.902 0-1.237 1.184-.468 1.657l2.814 1.732a.75.75 0 0 0 1.032-.246Z" fill="#5C5F62"/><path fill-rule="evenodd" d="M10 3a7 7 0 1 0 0 14 7 7 0 0 0 0-14Zm-5.5 7a5.5 5.5 0 1 1 11 0 5.5 5.5 0 0 1-11 0Z" fill="#5C5F62"/></svg>
